X:2120
T:Brennan's, John
M:C
L:1/8
K:D Major
A|D2FA d2ed|cdBd AFF2|BAGB ADFA|BAGF EGFE|!
D2FA d2ed|cdBd AFF2|BAGB ABde|faeg fdd:|!
e|f2df e2de|fedB AFF2|BAGB ADFA|BAGF EFGe|!
f2df e2de|fedB AFF2|BAGB ABde|faeg fdd:|!


